files/resources/svgs/general/s-arrow-small-right.svg

<svg width="24" height="24" viewBox="0 0 24 24" fill="none" xmlns="http://www.w3.org/2000/svg">
<path fill-rule="evenodd" clip-rule="evenodd" d="M3.75 12C3.75 11.5858 4.08579 11.25 4.5 11.25L17.6893 11.25L12.2197 5.78033C11.9268 5.48744 11.9268 5.01256 12.2197 4.71967C12.5126 4.42678 12.9874 4.42678 13.2803 4.71967L20.0303 11.4697C20.3232 11.7626 20.3232 12.2374 20.0303 12.5303L13.2803 19.2803C12.9874 19.5732 12.5126 19.5732 12.2197 19.2803C11.9268 18.9874 11.9268 18.5126 12.2197 18.2197L17.6893 12.75L4.5 12.75C4.08579 12.75 3.75 12.4142 3.75 12Z" fill="#0F172A"/>
</svg>

<svg xmlns="http://www.w3.org/2000/svg" viewBox="0 0 24 24" fill="currentColor" aria-hidden="true">
  <path fill-rule="evenodd" d="M3.75 12a.75.75 0 01.75-.75h13.19l-5.47-5.47a.75.75 0 011.06-1.06l6.75 6.75a.75.75 0 010 1.06l-6.75 6.75a.75.75 0 11-1.06-1.06l5.47-5.47H4.5a.75.75 0 01-.75-.75z" clip-rule="evenodd"/>
</svg>
